assets/facce/mammaKim.svg

<svg width="131" height="142" viewBox="0 0 131 142" fill="none" xmlns="http://www.w3.org/2000/svg">
<path d="M27.2772 46.2672C23.4357 56.5025 12.696 87.9643 17.497 108.23C19.4059 116.287 22.5476 120.536 29.2598 125.211C33.878 128.428 40.3129 129.475 44.7728 129.795C48.0841 130.033 51.3518 131.089 53.8872 133.232L54.4095 133.673C59.0756 137.618 65.94 137.502 70.4701 133.402C73.3757 130.772 77.3683 129.752 81.275 130.061C85.1776 130.369 90.1187 130.315 93.5807 128.715C102.055 124.797 105.96 118.318 107.433 108.944C110.601 88.7806 108.229 62.1965 106.67 49.0014C106.039 43.6621 103.721 38.6747 99.8026 34.9936C91.9478 27.615 77.4495 15.9759 64.8647 16.7837C51.1344 17.6651 36.3711 33.5754 30.8393 40.1352C29.2951 41.9664 28.1189 44.0245 27.2772 46.2672Z" fill="white" stroke="black" stroke-width="2" stroke-linecap="round" stroke-linejoin="round"/>
<path d="M33.3762 59.1702L32.4674 61.8419C32.4674 61.8419 50.3424 62.4748 52.4631 62.8879C54.5839 63.301 57.0626 60.5467 51.2236 59.2799C45.3846 58.0131 33.3762 59.1702 33.3762 59.1702Z" fill="black" stroke="black" stroke-linecap="round" stroke-linejoin="round"/>
<path d="M96.9408 59.3991L97.7681 62.097C97.7681 62.097 79.8822 62.1874 77.7499 62.536C75.6175 62.8846 73.2235 60.0564 79.0983 58.9673C84.973 57.8781 96.9408 59.3991 96.9408 59.3991Z" fill="black" stroke="black" stroke-linecap="round" stroke-linejoin="round"/>
<path d="M13.231 77.9394C11.1386 81.6061 11.8217 92.3432 14.4623 92.9478C15.2263 93.1227 15.6952 92.8576 16.3972 92.1579C18.6826 89.8799 19.9379 82.2735 18.1562 78.3344C16.7847 75.3024 14.7482 75.2806 13.231 77.9394Z" fill="white" stroke="black" stroke-width="2" stroke-linecap="round" stroke-linejoin="round"/>
<path d="M110.231 79.9394C108.139 83.6061 108.822 94.3432 111.462 94.9478C112.226 95.1227 112.695 94.8576 113.397 94.1579C115.683 91.8799 116.938 84.2735 115.156 80.3344C113.785 77.3024 111.748 77.2806 110.231 79.9394Z" fill="white" stroke="black" stroke-width="2" stroke-linecap="round" stroke-linejoin="round"/>
<path d="M114.441 94.3219C114.715 96.8417 113.256 98.7241 111.62 98.9119C109.984 99.0997 108.158 97.5942 107.885 95.0744C107.611 92.5545 109.07 90.6721 110.706 90.4843C112.342 90.2966 114.168 91.802 114.441 94.3219Z" fill="white" stroke="black" stroke-width="2" stroke-linecap="round" stroke-linejoin="round"/>
<path d="M18.8222 93.3218C19.0871 95.7625 17.5466 97.7344 15.6478 97.9524C13.749 98.1703 11.8236 96.5961 11.5587 94.1554C11.2938 91.7147 12.8343 89.7428 14.7331 89.5248C16.6319 89.3069 18.5573 90.881 18.8222 93.3218Z" fill="white" stroke="black" stroke-width="2" stroke-linecap="round" stroke-linejoin="round"/>
<path d="M58.9619 6.92129C58.9619 6.92129 42.1479 1.34206 30.0425 5.82045C18.6105 10.0497 3.60822 34.5321 0.848859 49.3381C-2.53935 67.5184 8.83705 81.4522 8.83705 81.4522C8.83705 81.4522 22.8383 75.314 28.1714 69.939C38.6108 59.4174 36.1521 27.4309 53.1959 30.6124C58.4148 31.5866 62.651 36.3397 62.651 36.3397C62.651 36.3397 65.7936 31.5916 71.0107 30.0185C88.0748 24.8733 84.2113 55.5495 93.171 68.6151C99.8578 78.3661 108.35 86.8086 118.374 81.1879C127.786 75.9106 134.378 55.0855 128.535 42.6142C118.164 20.4821 99.7556 7.13994 77.5251 0.696226C68.6064 -1.88894 58.9619 6.92129 58.9619 6.92129Z" fill="black"/>
<path d="M53.9244 101.052C53.9244 101.052 55.4996 92.807 62.3325 92.807C66.6917 92.807 70.0997 99.7941 70.0997 99.7941" stroke="black" stroke-width="2" stroke-linecap="round" stroke-linejoin="round"/>
<path d="M38.6201 74.4155C38.6201 74.4155 42.7955 69.3458 47.0184 69.3495C50.4625 69.3525 54.7231 74.7298 54.7231 74.7298" stroke="black" stroke-width="2" stroke-linecap="round" stroke-linejoin="round"/>
<path d="M73.3232 75.7368C73.3232 75.7368 77.4986 70.6671 81.7215 70.6708C85.1656 70.6738 89.4262 75.0511 89.4262 75.0511" stroke="black" stroke-width="2" stroke-linecap="round" stroke-linejoin="round"/>
<ellipse cx="46.4568" cy="72.9145" rx="3.74686" ry="3.6682" transform="rotate(-6.3686 46.4568 72.9145)" fill="black"/>
<ellipse cx="81.6645" cy="74.1793" rx="3.72791" ry="3.6682" transform="rotate(-6.3686 81.6645 74.1793)" fill="black"/>
<ellipse cx="59.0847" cy="100.678" rx="1.04806" ry="1.57208" transform="rotate(14.8823 59.0847 100.678)" fill="black"/>
<ellipse cx="1.04806" cy="1.57208" rx="1.04806" ry="1.57208" transform="matrix(-0.886046 0.463597 0.463597 0.886046 65.0176 98.4346)" fill="black"/>
<path d="M53.1285 115.198C53.1285 115.198 60.0863 114.07 64.586 113.919C68.7224 113.78 76.1792 114.639 76.1792 114.639" stroke="black" stroke-width="2" stroke-linecap="round" stroke-linejoin="round"/>
<path d="M60.1221 118.633C60.1221 118.633 62.3954 119.408 63.8403 119.487C65.3139 119.566 66.925 118.275 66.925 118.275" stroke="black" stroke-width="2" stroke-linecap="round" stroke-linejoin="round"/>
</svg>

<?xml version="1.0" encoding="utf-8"?>
<!-- Generator: Adobe Illustrator 28.1.0, SVG Export Plug-In . SVG Version: 6.00 Build 0)  -->
<svg version="1.1" id="Livello_1" xmlns="http://www.w3.org/2000/svg" xmlns:xlink="http://www.w3.org/1999/xlink" x="0px" y="0px"
	 viewBox="0 0 131 142" style="enable-background:new 0 0 131 142;" xml:space="preserve">
<style type="text/css">
	.st0{fill:#FFFFFF;stroke:#C00000;stroke-width:2;stroke-linecap:round;stroke-linejoin:round;}
	.st1{fill:#C00000;stroke:#C00000;stroke-linecap:round;stroke-linejoin:round;}
	.st2{fill:#C00000;stroke:#C00000;stroke-miterlimit:10;}
	.st3{fill:none;stroke:#C00000;stroke-width:2;stroke-linecap:round;stroke-linejoin:round;}
</style>
<path class="st0" d="M27.3,46.3c-3.8,10.2-14.6,41.7-9.8,62c1.9,8.1,5.1,12.3,11.8,17c4.6,3.2,11.1,4.3,15.5,4.6
	c3.3,0.2,6.6,1.3,9.1,3.4l0.5,0.4c4.7,3.9,11.5,3.8,16.1-0.3c2.9-2.6,6.9-3.6,10.8-3.3c3.9,0.3,8.8,0.3,12.3-1.3
	c8.5-3.9,12.4-10.4,13.9-19.8c3.2-20.2,0.8-46.7-0.8-59.9c-0.6-5.3-2.9-10.3-6.9-14c-7.9-7.4-22.4-19-34.9-18.2
	c-13.7,0.9-28.5,16.8-34,23.4C29.3,42,28.1,44,27.3,46.3z"/>
<path class="st1" d="M33.4,59.2l-0.9,2.7c0,0,17.9,0.6,20,1c2.1,0.4,4.6-2.3-1.2-3.6S33.4,59.2,33.4,59.2z"/>
<path class="st1" d="M96.9,59.4l0.8,2.7c0,0-17.9,0.1-20,0.4c-2.1,0.3-4.5-2.5,1.3-3.6C85,57.9,96.9,59.4,96.9,59.4z"/>
<path class="st0" d="M13.2,77.9c-2.1,3.7-1.4,14.4,1.2,15c0.8,0.2,1.2-0.1,1.9-0.8c2.3-2.3,3.5-9.9,1.8-13.8
	C16.8,75.3,14.7,75.3,13.2,77.9z"/>
<path class="st0" d="M110.2,79.9c-2.1,3.7-1.4,14.4,1.2,15c0.8,0.2,1.2-0.1,1.9-0.8c2.3-2.3,3.5-9.9,1.8-13.8
	C113.8,77.3,111.7,77.3,110.2,79.9z"/>
<path class="st0" d="M114.4,94.3c0.3,2.5-1.2,4.4-2.8,4.6c-1.6,0.2-3.5-1.3-3.7-3.8c-0.3-2.5,1.2-4.4,2.8-4.6
	C112.3,90.3,114.2,91.8,114.4,94.3z"/>
<path class="st0" d="M18.8,93.3c0.3,2.4-1.3,4.4-3.2,4.6c-1.9,0.2-3.8-1.4-4.1-3.8c-0.3-2.4,1.3-4.4,3.2-4.6
	C16.6,89.3,18.6,90.9,18.8,93.3z"/>
<path class="st2" d="M59,6.9c0,0-16.8-5.6-28.9-1.1C18.6,10,3.6,34.5,0.8,49.3c-3.4,18.2,8,32.1,8,32.1s14-6.1,19.3-11.5
	c10.4-10.5,8-42.5,25-39.3c5.2,1,9.5,5.7,9.5,5.7s3.1-4.7,8.4-6.3c17.1-5.1,13.2,25.5,22.2,38.6c6.7,9.8,15.2,18.2,25.2,12.6
	c9.4-5.3,16-26.1,10.2-38.6c-10.4-22.1-28.8-35.5-51-41.9C68.6-1.9,59,6.9,59,6.9z"/>
<path class="st3" d="M53.9,101.1c0,0,1.6-8.2,8.4-8.2c4.4,0,7.8,7,7.8,7"/>
<path class="st3" d="M38.6,74.4c0,0,4.2-5.1,8.4-5.1c3.4,0,7.7,5.4,7.7,5.4"/>
<path class="st3" d="M73.3,75.7c0,0,4.2-5.1,8.4-5.1c3.4,0,7.7,4.4,7.7,4.4"/>
<ellipse transform="matrix(0.9938 -0.1109 0.1109 0.9938 -7.8013 5.6032)" class="st2" cx="46.5" cy="72.9" rx="3.7" ry="3.7"/>
<ellipse transform="matrix(0.9938 -0.1109 0.1109 0.9938 -7.7243 9.5163)" class="st2" cx="81.7" cy="74.2" rx="3.7" ry="3.7"/>
<ellipse transform="matrix(0.2568 -0.9665 0.9665 0.2568 -53.3911 131.9232)" class="st2" cx="59.1" cy="100.7" rx="1.6" ry="1"/>
<ellipse transform="matrix(0.886 -0.4636 0.4636 0.886 -39.1188 41.4804)" class="st2" cx="64.8" cy="100.3" rx="1" ry="1.6"/>
<path class="st3" d="M53.1,115.2c0,0,7-1.1,11.5-1.3c4.1-0.1,11.6,0.7,11.6,0.7"/>
<path class="st3" d="M60.1,118.6c0,0,2.3,0.8,3.7,0.9c1.5,0.1,3.1-1.2,3.1-1.2"/>
</svg>
